X:1
T:Watchman, Blow the Gospel Trumpet
T:Watchman, Blow the Gospel Trumpet
T:William James Kirkpatrick
T:Henry Lake Gilmour, 1886
T:Public Domain Courtesy of the Cyber Hymnal™
C:William James Kirkpatrick
Z:Public Domain
Z:Courtesy of the Cyber Hymnal™
%%score ( 1 2 ) ( 3 4 )
L:1/8
Q:1/4=105
M:4/4
K:Ab
V:1 treble 
V:2 treble 
V:3 bass 
V:4 bass 
V:1
 [CA]3 [DB] [CA]ECE | [CA]4 [Ec]4 | [DF]3 [DG] [=DA][DG][DA][Dc] | [EB]6 z2 | [CA]3 [DB] [CA]ECE | %5
w: 1.~Watch- man, blow the Gos- pel|trum- pet,|Ev- ery soul a warn- ing|give;|Who- so- ev- er hears the|
w: 2.~Sound it loud o’er ev- ery|hill- top,|Gloom- y shade and sun- ny|plain;|O- cean depths re- peat the|
w: 3.~Sound it in the hedge and|high- way,|Earth’s dark spots where ex- iles|roam;|Let it tell all things are|
w: 4.~Sound it for the heav- y|la- den,|Wear- y, long- ing to be|free;|Sound a Sav- ior’s in- vi-|
 [CA]4 [Ec]4 | [EB]3 [Ec] [EB]E[=DG][DF] | E6 z2 ||"^Refrain" [Gd]3 [GB] [EG]E[Ec][EB] | %9
w: mes- sage|May re- pent, and turn and|live.||
w: mes- sage,|Full sal- va- tion’s glad re-|frain.|Blow the trum- pet, trust- y|
w: rea- dy,|Fa- ther waits to wel- come|home.||
w: ta- tion,|Sweet- ly say- ing, “Come to|Me.”||
 [EA]4 [CE]4 | [CA]3 [CA] AGAB | c4- [_Ec]2 x2 | [Ec]3 [Ec] [CB][CE][CA][Ec] | e4 [Fd]4 | %14
w: |||||
w: watch- man,|Blow it loud o’er land and|sea; God|com- mis- sions, sound the mes-|sage! Ev-|
w: |||||
w: |||||
 [Fd][Fc][FB][FA] [Ec]2 [DB]2 | [CA]6 z2 |] %16
w: ||
w: ery cap- tive may be free.||
w: ||
w: ||
V:2
 x5 ECE | x8 | x8 | x8 | x5 ECE | x8 | x5 E x2 | E6 x2 || x5 E x2 | x8 | x4 F2 F2 | %11
 =E2 F2 (3ccc x2 | x8 | (E2 _G2) x4 | x8 | x8 |] %16
V:3
 [A,,E,]3 [A,,E,] [A,,E,]E,C,E, | [A,,E,]4 [A,,A,]4 | [D,A,]3 [D,B,] [B,,B,][B,,B,][B,,F,][B,,A,] | %3
w: ~ ~ ~ ~ ~ ~|~ ~|~ ~ ~ ~ ~ ~|
 [E,G,]6 z2 | [A,,E,]3 [A,,E,] [A,,E,]E,C,E, | [A,,E,]4 [A,,A,]4 | %6
w: ~|~ ~ ~ ~ ~ ~|~ ~|
 [B,,G,]3 [B,,A,] [B,,G,][B,,G,][B,,B,][B,,A,] | [E,G,]6 z2 || [E,B,]3 [E,B,] [E,B,][E,G,]E,[E,D] | %9
w: ~ ~ ~ ~ ~ ~|~|~ ~ ~ ~ ~ ~|
 [A,,C]4 [A,,A,]4 | [F,A,]3 [F,A,] [D,F,]2 [D,F,]2 | [C,G,]2 [F,A,]2 [E,G,]2 z2 | %12
w: ~ ~|~ ~ loud o’er|land and sea|
 [A,,A,]3 [A,,E,] [A,,E,][A,,A,][A,,A,][A,,A,] | [C,A,]4 [D,A,]4 | %14
w: ||
 [B,,B,][C,A,][D,A,][=D,A,] [E,A,]2 [E,G,]2 | [A,,E,A,]6 z2 |] %16
w: ||
V:4
 x5 E,C,E, | x8 | x8 | x8 | x5 E,C,E, | x8 | x8 | x8 || x6 E, x | x8 | x8 | x8 | x8 | x8 | x8 | %15
 x8 |] %16

